X:57
T:Midnight Ramble, The
M:6/8
L:1/8
B:Thompson's Compleat Collection of 200 Favourite Country Dances, vol. 2 (London, 1765)
Z:Transcribed and edited by Flynn Titford-Mock, 2007
Z:abc's:AK/Fiddler's Companion
K:Cmin
c | =Bgg gd | ecc =BGG | AFF GEE | FDG ECC | =Bgg gdd | ecc d=BG | cGE AFG | ECC C2 :|
|: G | ECG =B,G,c | =Bge | dG^f | g=fg cde | =BGG G2d | ecc dGG | AFF BEE | FDD EFG | ECC C2 :|

